X: 15868
T: Gracelands
R: waltz
M: 3/4
K: Gmajor
[M:4/4]B3 A|:G3 A BB,3|D4 D2 E2|G4 A3 B/c/|BG3 g2 f2|
[1e3d c3B|dG3 c3B|AG3 E3G|A4 B3 A:|
[2e3d c3B|AG3 B3A|G8-|G4 d3c|
|:B3A G3F|D3C B,D3|C4C/4 B,C3|D4 d3c|
B3A G3F|D3C B,D3|C8|C4 B3A|
G3 A BB,3|D4 D2 E2|G4 A3 B/c/|BG3 g2 f2|
e3d c3B|AG3 B3A|G8-|1 G4 d3c:|2 G4 B3A||

